X: 37
M: C|
L: 1/8
K: Ador
a |\
ge e/e/e g2ga | ge e/e/e (dB)Ba |\
ge e/e/e g2ga | ge e/e/e A2A :|
|: B |\


